pillow/KKV3.cube
# Created by: G'MIC (https://gmic.eu)
TITLE "output"
# LUT size
LUT_3D_SIZE 32
# Data domain
DOMAIN_MIN 0.0 0.0 0.0
DOMAIN_MAX 1.0 1.0 1.0
# LUT data points
0.00010846023360500112 0.00010846023360500112 0.00010846023360500112
0.00045874869101680815 0.00010846023360500112 0.00010846023360500112
0.00080903718480840325 0.00010846023360500112 0.00010846023360500112
0.0011593254748731852 0.00010846023360500112 0.00010846023360500112
0.0015096174320206046 0.00010846023360500112 0.00010846024088095874
0.0018598373280838132 0.00010846023360500112 0.00010846023360500112
0.0022111129947006702 0.00010846023360500112 0.00010846023360500112
0.0025582832749933004 0.00010846023360500112 0.00010846023360500112
0.002558484673500061 0.00010846023360500112 0.00010846023360500112
0.012482586316764355 0.00010846023360500112 0.00010846023360500112
0.067451693117618561 0.00010846023360500112 0.00010846023360500112
0.15765324234962463 0.00010846023360500112 0.00010846023360500112
0.22037553787231445 0.00010846023360500112 0.00010846023360500112
0.27791422605514526 0.00010846023360500112 0.00010846023360500112
0.3329184353351593 0.00010846023360500112 0.00010846024088095874
0.38095581531524658 0.00010846023360500112 0.00010846024088095874
0.41347548365592957 0.00010846023360500112 0.00010846023360500112
0.45903149247169495 0.00010846023360500112 0.00010846024088095874
0.51226568222045898 0.00010846023360500112 0.00010846023360500112
0.55838745832443237 0.00010846023360500112 0.00010846023360500112
0.60156124830245972 0.00010846023360500112 0.00010846024088095874
0.64717423915863037 0.00010846023360500112 0.00010846023360500112
0.68870627880096436 0.00010846023360500112 0.00010846023360500112
0.73617327213287354 0.00010846023360500112 0.00010846023360500112
0.78115373849868774 0.00010846023360500112 0.00010846023360500112
0.82114630937576294 0.00010846023360500112 0.00010846023360500112
0.85473793745040894 0.00010846023360500112 0.00010846023360500112
0.88886374235153198 0.00010846023360500112 0.00010846023360500112
0.92138028144836426 0.00010846023360500112 0.00010846023360500112
0.95557099580764771 0.00010846023360500112 0.00010846023360500112
0.98728287220001221 0.00010846023360500112 0.00010846023360500112
0.99870383739471436 0.00010846023360500112 0.00010846023360500112
0.00010846023360500112 0.00045874869101680815 0.00010846023360500112
0.00045874869101680815 0.00045874869101680815 0.00010846023360500112
0.00080903718480840325 0.00045874869101680815 0.00010846023360500112
0.0011593258241191506 0.00045874869101680815 0.00010846023360500112
0.0015096125425770879 0.00045874869101680815 0.00010846023360500112
0.0018598820315673947 0.00045874869101680815 0.00010846023360500112
0.0022112426813691854 0.00045874869101680815 0.00010846023360500112
0.0025458396412432194 0.00045874869101680815 0.00010846023360500112
0.0027226235251873732 0.00045874869101680815 0.00010846023360500112
0.012858823873102665 0.00045874869101680815 0.00010846023360500112
0.067178845405578613 0.00045874869101680815 0.00010846023360500112
0.15763482451438904 0.00045874869101680815 0.00010846023360500112
0.2203684002161026 0.00045874869101680815 0.00010846023360500112
0.277925044298172 0.00045874869101680815 0.00010846023360500112
0.33280175924301147 0.00045874869101680815 0.00010846023360500112
0.38086599111557007 0.00045874869101680815 0.00010846023360500112
0.41352739930152893 0.00045874869101680815 0.00010846024088095874
0.45901727676391602 0.00045874869101680815 0.00010846023360500112
0.51220178604125977 0.00045874869101680815 0.00010846024088095874
0.55840671062469482 0.00045874869101680815 0.00010846023360500112
0.60157269239425659 0.00045874869101680815 0.00010846024088095874
0.64714252948760986 0.00045874869101680815 0.00010846023360500112
0.6887664794921875 0.00045874869101680815 0.00010846023360500112
0.7361186146736145 0.00045874869101680815 0.00010846023360500112
0.78113651275634766 0.00045874869101680815 0.00010846023360500112
0.82111799716949463 0.00045874869101680815 0.00010846023360500112
0.8547632098197937 0.00045874869101680815 0.00010846023360500112
0.88884401321411133 0.00045874869101680815 0.00010846023360500112
0.92140388488769531 0.00045874869101680815 0.00010846023360500112
0.95552396774291992 0.00045874869101680815 0.00010846023360500112
0.98715096712112427 0.00045874869101680815 0.00010846023360500112
0.99870610237121582 0.00045874869101680815 0.00010846023360500112
0.00010846023360500112 0.00080903718480840325 0.00010846023360500112
0.00045874869101680815 0.00080903718480840325 0.00010846023360500112
0.00080903718480840325 0.00080903718480840325 0.00010846024088095874
0.001159325591288507 0.00080903718480840325 0.00010846023360500112
0.0015096125425770879 0.00080903718480840325 0.00010846024088095874
0.0018599426839500666 0.00080903718480840325 0.00010846023360500112
0.0022101197391748428 0.00080903718480840325 0.00010846024088095874
0.002554161474108696 0.00080903718480840325 0.00010846024088095874
0.002739237155765295 0.00080903718480840325 0.00010846024088095874
0.012832327745854855 0.00080903718480840325 0.00010846024088095874
0.067184753715991974 0.00080903718480840325 0.00010846023360500112
0.15763238072395325 0.00080903718480840325 0.00010846023360500112
0.22037091851234436 0.00080903718480840325 0.00010846024088095874
0.27791878581047058 0.00080903718480840325 0.00010846023360500112
0.33279994130134583 0.00080903718480840325 0.00010846024088095874
0.38086268305778503 0.00080903718480840325 0.00010846024088095874
0.41352176666259766 0.00080903718480840325 0.00010846023360500112
0.45901289582252502 0.00080903718480840325 0.00010846023360500112
0.51220393180847168 0.00080903718480840325 0.00010846024088095874
0.55840736627578735 0.00080903718480840325 0.00010846023360500112
0.60157078504562378 0.00080903712660074234 0.00010846024088095874
0.64714640378952026 0.00080903718480840325 0.00010846023360500112
0.688762366771698 0.00080903718480840325 0.00010846024088095874
0.73611873388290405 0.00080903718480840325 0.00010846023360500112
0.78113561868667603 0.00080903718480840325 0.00010846024088095874
0.82112026214599609 0.00080903718480840325 0.00010846023360500112
0.85476189851760864 0.00080903718480840325 0.00010846023360500112
0.88884580135345459 0.00080903718480840325 0.00010846023360500112
0.92140138149261475 0.00080903718480840325 0.00010846023360500112
0.95551812648773193 0.00080903718480840325 0.00010846023360500112
0.98715466260910034 0.00080903718480840325 0.00010846024088095874
0.99870598316192627 0.00080903718480840325 0.00010846024088095874
0.00010846023360500112 0.0011593257077038288 0.00010846023360500112
0.00045874869101680815 0.001159325591288507 0.00010846023360500112
0.00080903718480840325 0.0011593257077038288 0.00010846023360500112
0.0011593251256272197 0.001159325591288507 0.00010846023360500112
0.0015096199931576848 0.001159325591288507 0.00010846023360500112
0.0018598571186885238 0.0011593257077038288 0.00010846023360500112
0.0022105695679783821 0.001159325591288507 0.00010846023360500112
0.0025548355188220739 0.001159325591288507 0.00010846023360500112
0.0027371000032871962 0.001159325591288507 0.00010846023360500112
0.012833553366363049 0.001159325591288507 0.00010846023360500112
0.067184403538703918 0.001159325591288507 0.00010846023360500112
0.15763270854949951 0.0011593257077038288 0.00010846023360500112
0.22037041187286377 0.001159325591288507 0.00010846023360500112
0.27791893482208252 0.0011593257077038288 0.00010846023360500112
0.33279985189437866 0.001159325591288507 0.00010846023360500112
0.38086238503456116 0.0011593258241191506 0.00010846023360500112
0.41352146863937378 0.0011593253584578633 0.00010846024088095874
0.4590131938457489 0.0011593258241191506 0.00010846023360500112
0.51220405101776123 0.0011593258241191506 0.00010846023360500112
0.55840718746185303 0.0011593253584578633 0.00010846023360500112
0.60157114267349243 0.0011593258241191506 0.00010846024088095874
0.64714604616165161 0.001159325591288507 0.00010846023360500112
0.68876254558563232 0.001159325591288507 0.00010846023360500112
0.73611873388290405 0.001159325591288507 0.00010846023360500112
0.78113573789596558 0.001159325591288507 0.00010846023360500112
0.82112008333206177 0.001159325591288507 0.00010846023360500112
0.85476207733154297 0.001159325591288507 0.00010846023360500112
0.88884562253952026 0.001159325591288507 0.00010846023360500112
0.92140114307403564 0.001159325591288507 0.00010846023360500112
0.95551854372024536 0.001159325591288507 0.00010846023360500112
0.98715454339981079 0.001159325591288507 0.00010846023360500112
0.99870592355728149 0.001159325591288507 0.00010846023360500112
0.00010846024088095874 0.0015096139395609498 0.00010846024088095874
0.00045874869101680815 0.0015096146380528808 0.00010846023360500112
0.00080903712660074234 0.0015096137067303061 0.00010846024088095874
0.0011593258241191506 0.0015096130082383752 0.00010846023360500112
0.0015096139395609498 0.0015096147544682026 0.00010846024088095874
0.0018598833121359348 0.0015096135903149843 0.00010846023360500112
0.0022105947136878967 0.0015096139395609498 0.00010846024088095874
0.0025546855758875608 0.001509613823145628 0.00010846024088095874
0.0027372450567781925 0.0015096139395609498 0.00010846024088095874
0.012833487242460251 0.0015096139395609498 0.00010846024088095874
0.067184425890445709 0.0015096139395609498 0.00010846023360500112
0.15763266384601593 0.0015096139395609498 0.00010846023360500112
0.22037045657634735 0.0015096139395609498 0.00010846023360500112
0.27791893482208252 0.0015096140559762716 0.00010846024088095874
0.33279985189437866 0.0015096134738996625 0.00010846024088095874
0.38086241483688354 0.0015096134738996625 0.00010846024088095874
0.41352149844169617 0.0015096169663593173 0.00010846023360500112
0.4590131938457489 0.0015096132410690188 0.00010846023360500112
0.5122038722038269 0.001509611145593226 0.00010846024088095874
0.55840754508972168 0.0015096162678673863 0.00010846023360500112
0.601570725440979 0.0015096134738996625 0.00010846024088095874
0.64714610576629639 0.0015096139395609498 0.00010846024088095874
0.68876254558563232 0.0015096139395609498 0.00010846023360500112
0.73611867427825928 0.0015096139395609498 0.00010846024088095874
0.78113573789596558 0.0015096139395609498 0.00010846024088095874
0.82112014293670654 0.0015096139395609498 0.00010846023360500112
0.85476201772689819 0.0015096139395609498 0.00010846024088095874
0.88884562253952026 0.0015096139395609498 0.00010846023360500112
0.92140120267868042 0.0015096139395609498 0.00010846024088095874
0.95551848411560059 0.0015096139395609498 0.00010846023360500112
0.98715454339981079 0.0015096139395609498 0.00010846023360500112
0.99870598316192627 0.001509613823145628 0.00010846023360500112
0.00010846023360500112 0.0018599105533212423 0.00010846023360500112
0.00045874869101680815 0.0018598980968818069 0.00010846023360500112
0.00080903718480840325 0.0018599001923575997 0.00010846023360500112
0.0011593254748731852 0.0018599180039018393 0.00010846023360500112
0.0015096154529601336 0.001859900658018887 0.00010846023360500112
0.0018598836613819003 0.0018599069444462657 0.00010846023360500112
0.0022105847019702196 0.0018599058967083693 0.00010846023360500112
0.0025546995457261801 0.0018599061295390129 0.00010846023360500112
0.0027372362092137337 0.0018599058967083693 0.00010846023360500112
0.0128334891051054 0.0018599057802930474 0.00010846023360500112
0.067184425890445709 0.0018599049653857946 0.00010846023360500112
0.15763267874717712 0.0018599053146317601 0.00010846023360500112
0.22037044167518616 0.0018599054310470819 0.00010846023360500112
0.27791893482208252 0.0018599046161398292 0.00010846023360500112
0.33279988169670105 0.001859913463704288 0.00010846023360500112
0.38086241483688354 0.0018599083414301276 0.00010846023360500112
0.41352152824401855 0.0018598770257085562 0.00010846023360500112
0.45901301503181458 0.0018598886672407389 0.00010846023360500112
0.51220482587814331 0.0018599396571516991 0.00010846024088095874
0.55840384960174561 0.0018598934402689338 0.00010846023360500112
0.60157305002212524 0.0018599050818011165 0.00010846024088095874
0.64714622497558594 0.0018599058967083693 0.00010846023360500112
0.68876218795776367 0.0018599053146317601 0.00010846024088095874
0.73611867427825928 0.0018599054310470819 0.00010846023360500112
0.78113573789596558 0.0018599054310470819 0.00010846024088095874
0.82112008333206177 0.0018599054310470819 0.00010846023360500112
0.85476201772689819 0.0018599054310470819 0.00010846023360500112
0.88884562253952026 0.0018599054310470819 0.00010846023360500112
0.92140114307403564 0.0018599054310470819 0.00010846023360500112
0.95551848411560059 0.0018599051982164383 0.00010846023360500112
0.98715454339981079 0.0018599055474624038 0.00010846023360500112
0.99870598316192627 0.0018599069444462657 0.00010846023360500112
0.00010846023360500112 0.0022100282367318869 0.00010846023360500112
0.00045874869101680815 0.0022101555950939655 0.00010846023360500112
0.00080903718480840325 0.0022102848161011934 0.00010846024088095874
0.001159325591288507 0.0022100561764091253 0.00010846023360500112
0.0015096154529601336 0.0022101528011262417 0.00010846024088095874
0.0018598833121359348 0.0022101395297795534 0.00010846023360500112
0.0022105863317847252 0.002210141159594059 0.00010846023360500112
0.0025546967517584562 0.0022101399954408407 0.00010846023360500112
0.0027372394688427448 0.0022101420909166336 0.00010846023360500112
0.012833498418331146 0.0022101425565779209 0.00010846023360500112
0.067184425890445709 0.0022101541981101036 0.00010846023360500112
0.15763269364833832 0.0022101576905697584 0.00010846023360500112
0.22037045657634735 0.0022101562935858965 0.00010846023360500112
0.27791893482208252 0.0022101569920778275 0.00010846023360500112
0.33279988169670105 0.002210073871538043 0.00010846023360500112
0.38086238503456116 0.0022101299837231636 0.00010846023360500112
0.413521409034729 0.0022102377843111753 0.00010846023360500112
0.45901384949684143 0.0022105691023170948 0.00010846023360500112
0.51219832897186279 0.0022099271882325411 0.00010846024088095874
0.55844277143478394 0.0022101490758359432 0.00010846023360500112
0.60156625509262085 0.0022101632785052061 0.00010846024088095874
0.64714014530181885 0.0022101486101746559 0.00010846023360500112
0.68876224756240845 0.0022101511713117361 0.00010846023360500112
0.73611873388290405 0.0022101511713117361 0.00010846024088095874
0.78113573789596558 0.0022101511713117361 0.00010846023360500112
0.82112008333206177 0.0022101511713117361 0.00010846024088095874
0.85476201772689819 0.0022101511713117361 0.00010846023360500112
0.88884562253952026 0.0022101511713117361 0.00010846023360500112
0.92140120267868042 0.0022101509384810925 0.00010846023360500112
0.95551848411560059 0.0022101523354649544 0.00010846023360500112
0.98715454339981079 0.0022101448848843575 0.00010846023360500112
0.99870592355728149 0.0022101378999650478 0.00010846023360500112
0.00010846023360500112 0.0025628854054957628 0.00010846023360500112
0.00045874869101680815 0.002562888665124774 0.00010846023360500112
0.00080903718480840325 0.0025601179804652929 0.00010846024088095874
0.001159325591288507 0.0025616227649152279 0.00010846023360500112
0.0015096153365448117 0.0025614569894969463 0.00010846024088095874
0.0018598835449665785 0.0025614702608436346 0.00010846023360500112
0.002210583072155714 0.0025614665355533361 0.00010846023360500112
0.0025547146797180176 0.002561475383117795 0.00010846023360500112
0.0027371805626899004 0.0025614460464566946 0.00010846023360500112
0.012833504006266594 0.0025614586193114519 0.00010846023360500112
0.06718435138463974 0.0025613419711589813 0.00010846023360500112
0.15763233602046967 0.0025612299796193838 0.00010846023360500112
0.22037056088447571 0.0025611585006117821 0.00010846023360500112
0.27791911363601685 0.0025611075107008219 0.00010846023360500112
0.33279979228973389 0.0025612926110625267 0.00010846023360500112
0.38086244463920593 0.0025621645618230104 0.00010846023360500112
0.41352176666259766 0.0025650900788605213 0.00010846023360500112
0.45901113748550415 0.0025573184248059988 0.00010846023360500112
0.51222717761993408 0.0025612765457481146 0.00010846024088095874
0.55807453393936157 0.0025614940095692873 0.00010846023360500112
0.60146468877792358 0.0025612267199903727 0.00010846024088095874
0.64713859558105469 0.0025612707249820232 0.00010846023360500112
0.6887628436088562 0.0025612669996917248 0.00010846024088095874
0.73611897230148315 0.0025612667668610811 0.00010846023360500112
0.78113573789596558 0.0025612669996917248 0.00010846024088095874
0.82112008333206177 0.0025612669996917248 0.00010846023360500112
0.85476201772689819 0.0025612667668610811 0.00010846023360500112
0.88884562253952026 0.0025612665340304375 0.00010846023360500112
0.92140114307403564 0.0025612676981836557 0.00010846023360500112
0.95551854372024536 0.0025612609460949898 0.00010846023360500112
0.98715454339981079 0.0025613403413444757 0.00010846023360500112
0.99870598316192627 0.0025609061121940613 0.00010846023360500112
0.00010846023360500112 0.0029005843680351973 0.00010846023360500112
0.00045874869101680815 0.0028730272315442562 0.00010846023360500112
0.00080903718480840325 0.0028975792229175568 0.00010846024088095874
0.001159325591288507 0.0028956616297364235 0.00010846023360500112
0.0015096155693754554 0.00289576081559062 0.00010846024088095874
0.0018598815659061074 0.0028957442846149206 0.00010846023360500112
0.0022106021642684937 0.0028957664035260677 0.00010846023360500112
0.002554561709985137 0.0028956905007362366 0.00010846023360500112
0.0027380327228456736 0.0028960972558706999 0.00010846023360500112
0.012832036241889 0.0028954246081411839 0.00010846023360500112
0.067183539271354675 0.0028954779263585806 0.00010846023360500112
0.15763787925243378 0.0028961333446204662 0.00010846023360500112
0.22037103772163391 0.0028976025059819221 0.00010846023360500112
0.27791708707809448 0.0029011494480073452 0.00010846023360500112
0.33279982209205627 0.0029066158458590508 0.00010846023360500112
0.38086259365081787 0.0028897470328956842 0.00010846023360500112
0.41352099180221558 0.0028311393689364195 0.00010846023360500112
0.45901525020599365 0.0028997685294598341 0.00010846023360500112
0.51220780611038208 0.0029029115103185177 0.00010846024088095874
0.55791795253753662 0.0028982555959373713 0.00010846023360500112
0.601421058177948 0.0028988798148930073 0.00010846024088095874
0.64713555574417114 0.0028988325502723455 0.00010846023360500112
0.68876832723617554 0.0028988281264901161 0.00010846023360500112
0.7361183762550354 0.0028988297563046217 0.00010846024088095874
0.78113514184951782 0.0028988304547965527 0.00010846023360500112
0.82112008333206177 0.0028988297563046217 0.00010846023360500112
0.85476201772689819 0.0028988297563046217 0.00010846023360500112
0.88884568214416504 0.0028988306876271963 0.00010846023360500112
0.92140120267868042 0.0028988264966756105 0.00010846023360500112
0.95551848411560059 0.0028988458216190338 0.00010846023360500112
0.98715454339981079 0.0028983301017433405 0.00010846023360500112
0.99870598316192627 0.0029142096173018217 0.00010846023360500112
0.00010846023360500112 0.0025020292960107327 0.00010846023360500112
0.00045874869101680815 0.0029260271694511175 0.00010846023360500112
0.00080903718480840325 0.0029079453088343143 0.00010846024088095874
0.001159325591288507 0.002908509224653244 0.00010846023360500112
0.0015096151037141681 0.0029085006099194288 0.00010846024088095874
0.0018598869210109115 0.0029085690621286631 0.00010846023360500112
0.0022105320822447538 0.0029084559064358473 0.00010846023360500112
0.0025554606691002846 0.0029089059680700302 0.00010846023360500112
0.0027285071555525064 0.0029042747337371111 0.00010846023360500112
0.012877307832241058 0.0029254800174385309 0.00010846023360500112
0.067258112132549286 0.0029655415564775467 0.00010846023360500112
0.15761229395866394 0.0030146553181111813 0.00010846023360500112
0.2203376293182373 0.0030393397901207209 0.00010846023360500112
0.27791577577590942 0.0029865270480513573 0.00010846023360500112
0.33280110359191895 0.002942617516964674 0.00010846023360500112
0.38086137175559998 0.002688518026843667 0.00010846023360500112
0.4135267436504364 0.0029685008339583874 0.00010846023360500112
0.45901057124137878 0.0030519058927893639 0.00010846023360500112
0.5121886134147644 0.0029705413617193699 0.00010846024088095874
0.5583418607711792 0.0029784999787807465 0.00010846023360500112
0.60153931379318237 0.0029779453761875629 0.00010846024088095874
0.64719527959823608 0.0029778683092445135 0.00010846023360500112
0.6887505054473877 0.0029779013711959124 0.00010846024088095874
0.73610484600067139 0.0029779085889458656 0.00010846023360500112
0.78113466501235962 0.0029778983443975449 0.00010846023360500112
0.82111990451812744 0.0029778997413814068 0.00010846023360500112
0.85476213693618774 0.0029779013711959124 0.00010846023360500112
0.88884568214416504 0.0029778992757201195 0.00010846023360500112
0.92140114307403564 0.0029779295437037945 0.00010846023360500112
0.95551854372024536 0.0029774787835776806 0.00010846023360500112
0.98715454339981079 0.0029864388052374125 0.00010846023360500112
0.99870598316192627 0.0027777808718383312 0.00010846023360500112
0.00010846023360500112 0.025727316737174988 0.00010846023360500112
0.00045874869101680815 0.025629766285419464 0.00010846023360500112
0.00080903718480840325 0.025629464536905289 0.00010846023360500112
0.001159325591288507 0.025629483163356781 0.00010846023360500112
0.0015096149872988462 0.025629306212067604 0.00010846023360500112
0.0018598868045955896 0.025628961622714996 0.00010846023360500112
0.0022105895914137363 0.025629449635744095 0.00010846023360500112
0.0025535558816045523 0.025628412142395973 0.00010846023360500112
0.0027776677161455154 0.025652909651398659 0.00010846023360500112
0.012082650326192379 0.025263611227273941 0.00010846023360500112
0.065561354160308838 0.02426680363714695 0.00010846023360500112
0.15680199861526489 0.022772014141082764 0.00010846023360500112
0.22028049826622009 0.021375874057412148 0.00010846024088095874
0.27791056036949158 0.021201033145189285 0.00010846023360500112
0.33279207348823547 0.021240834146738052 0.00010846023360500112
0.38089895248413086 0.02302752248942852 0.00010846023360500112
0.41349232196807861 0.022790582850575447 0.00010846023360500112
0.45905029773712158 0.021122757345438004 0.00010846023360500112
0.51218408346176147 0.021209351718425751 0.00010846024088095874
0.55844825506210327 0.021202895790338516 0.00010846023360500112
0.60156941413879395 0.021201584488153458 0.00010846024088095874
0.64633327722549438 0.021202139556407928 0.00010846023360500112
0.68846762180328369 0.021202147006988525 0.00010846023360500112
0.73608881235122681 0.021201986819505692 0.00010846023360500112
0.78113472461700439 0.021202018484473228 0.00010846023360500112
0.82112240791320801 0.021202027797698975 0.00010846023360500112
0.85476201772689819 0.021202018484473228 0.00010846023360500112
0.88884508609771729 0.021201994270086288 0.00010846023360500112
0.92140102386474609 0.021201957017183304 0.00010846023360500112
0.95551860332489014 0.02120271697640419 0.00010846023360500112
0.98715454339981079 0.021198423579335213 0.00010846023360500112
0.99870598316192627 0.021156573668122292 0.00010846023360500112
0.00010846023360500112 0.097673073410987854 0.00010846023360500112
0.00045874869101680815 0.097616441547870636 0.00010846023360500112
0.00080903718480840325 0.097614966332912445 0.00010846023360500112
0.001159325591288507 0.097614452242851257 0.00010846023360500112
0.0015096142888069153 0.097615636885166168 0.00010846023360500112
0.0018598982132971287 0.09761674702167511 0.00010846023360500112
0.002210449893027544 0.0976143479347229 0.00010846023360500112
0.002553651574999094 0.097615085542201996 0.00010846023360500112
0.0028282806742936373 0.097638800740242004 0.00010846023360500112
0.010811343789100647 0.09703557938337326 0.00010846023360500112
0.060553379356861115 0.094048045575618744 0.00010846023360500112
