pillow/KKV3.cube
# Created by: G'MIC (https://gmic.eu)
TITLE "output"
# LUT size
LUT_3D_SIZE 5
# Data domain
# LUT data points
DOMAIN_MIN 0.000000 0.000000 0.000000
DOMAIN_MAX 0.903226 0.903226 0.903226
0.00010846023360500112 0.00010846023360500112 0.00010846023360500112
0.0025582832749933004 0.00010846023360500112 0.00010846023360500112
0.3329184353351593 0.00010846023360500112 0.00010846024088095874
0.64717423915863037 0.00010846023360500112 0.00010846023360500112
0.92138028144836426 0.00010846023360500112 0.00010846023360500112
0.00010846023360500112 0.0025628854054957628 0.00010846023360500112
0.0025547146797180176 0.002561475383117795 0.00010846023360500112
0.33279979228973389 0.0025612926110625267 0.00010846023360500112
0.64713859558105469 0.0025612707249820232 0.00010846023360500112
0.92140114307403564 0.0025612676981836557 0.00010846023360500112
0.00010846023360500112 0.27244341373443604 0.00010846024088095874
0.0025587482377886772 0.27238017320632935 0.00010846023360500112
0.32379183173179626 0.26513963937759399 0.00010846023360500112
0.64243477582931519 0.22985877096652985 0.00010846023360500112
0.92142677307128906 0.22924485802650452 0.00010846023360500112
0.00010846023360500112 0.5919305682182312 0.00010846023360500112
0.0025560334324836731 0.59189313650131226 0.00010846023360500112
0.27179855108261108 0.58779120445251465 0.00010846023360500112
0.62491494417190552 0.57909667491912842 0.00010846023360500112
0.92135107517242432 0.55573391914367676 0.00010846023360500112
0.00010846023360500112 0.90656071901321411 0.00010846023360500112
0.0025560306385159492 0.90653073787689209 0.00010846023360500112
0.27155208587646484 0.90548795461654663 0.00010846023360500112
0.56107515096664429 0.89956527948379517 0.00010846023360500112
0.90911334753036499 0.89062410593032837 0.00010846023360500112
0.00010846023360500112 0.00010846023360500112 0.0025550664868205786
0.0025546986144036055 0.00010846023360500112 0.0025512229185551405
0.33779305219650269 0.00010846023360500112 0.0025582720991224051
0.64714562892913818 0.00010846023360500112 0.0025533901061862707
0.92140114307403564 0.00010846023360500112 0.0025533949956297874
0.00010846023360500112 0.0025614683981984854 0.0025512233842164278
0.0025575077161192894 0.0025603747926652431 0.0025562809314578772
0.33267846703529358 0.0025604346301406622 0.0025601824745535851
0.64711987972259521 0.0025603945832699537 0.0025573417078703642
0.9214206337928772 0.002560388995334506 0.0025572264567017555
0.00010846023360500112 0.27238118648529053 0.0025581319350749254
0.0025596492923796177 0.27232217788696289 0.0025601813104003668
0.32368609309196472 0.26502397656440735 0.0025622134562581778
0.64243710041046143 0.22985203564167023 0.0025598867796361446
0.92141622304916382 0.22881819307804108 0.0025598891079425812
0.00010846023360500112 0.59189337491989136 0.0025533938314765692
0.0025581505615264177 0.59185725450515747 0.0025572276208549738
0.27179178595542908 0.58775538206100464 0.0025598898064345121
0.62490850687026978 0.57902282476425171 0.0025572266895323992
0.92137110233306885 0.55566692352294922 0.0025572264567017555
0.00010846023360500112 0.90653067827224731 0.0025533949956297874
0.002558146370574832 0.9064977765083313 0.0025572269223630428
0.27148082852363586 0.90542250871658325 0.0025598905049264431
0.56118345260620117 0.89956927299499512 0.0025572455488145351
0.90913975238800049 0.89064157009124756 0.0025572252925485373
0.00010846023360500112 0.00010846023360500112 0.32141625881195068
0.0025587414857000113 0.00010846023360500112 0.32129615545272827
0.33280330896377563 0.00010846023360500112 0.31721335649490356
0.64715969562530518 0.00010846023360500112 0.29627493023872375
0.92139500379562378 0.00010846023360500112 0.26008862257003784
0.00010846023360500112 0.0025613286998122931 0.32129615545272827
0.0025598250795155764 0.0025602392852306366 0.32117077708244324
0.33268728852272034 0.0025602458044886589 0.31706854701042175
0.64713233709335327 0.0025602865498512983 0.29609838128089905
0.92141568660736084 0.0025602823588997126 0.26004111766815186
0.00010846023360500112 0.27238795161247253 0.31269896030426025
0.0025617179926484823 0.27232405543327332 0.31256362795829773
0.32842221856117249 0.25261577963829041 0.30593430995941162
0.64707213640213013 0.2288501113653183 0.26496472954750061
0.92141157388687134 0.22882413864135742 0.2599760890007019
0.00010846023360500112 0.59190535545349121 0.26144561171531677
0.0025599498767405748 0.59186834096908569 0.26142701506614685
0.27152168750762939 0.59181314706802368 0.25999906659126282
0.62784487009048462 0.57902389764785767 0.25997200608253479
0.92137521505355835 0.545157790184021 0.25997018814086914
0.00010846023360500112 0.9065396785736084 0.26007208228111267
0.002559947781264782 0.90650928020477295 0.25996723771095276
0.27148839831352234 0.90651088953018188 0.2599753737449646
0.53768265247344971 0.90207308530807495 0.25997021794319153
0.9116971492767334 0.89062744379043579 0.25997024774551392
0.00010846023360500112 0.00010846023360500112 0.64620280265808105
0.0025548459962010384 0.00010846023360500112 0.6461755633354187
0.33279964327812195 0.00010846023360500112 0.6432110071182251
0.64714610576629639 0.00010846023360500112 0.63622176647186279
0.92140120267868042 0.00010846023360500112 0.62359583377838135
0.00010846023360500112 0.0025614732876420021 0.64617562294006348
0.0025575121399015188 0.002560376888141036 0.64615100622177124
0.33267861604690552 0.0025603070389479399 0.64321368932723999
0.64711982011795044 0.0025603997055441141 0.63624536991119385
0.92143762111663818 0.0025603955145925283 0.6235734224319458
0.00010846023360500112 0.27238118648529053 0.64154952764511108
0.0025601035449653864 0.27232104539871216 0.641559898853302
0.31419625878334045 0.24034412205219269 0.64555084705352783
0.64712685346603394 0.22881974279880524 0.6377185583114624
0.92141568660736084 0.2288183867931366 0.61746329069137573
0.00010846023360500112 0.59189337491989136 0.62676155567169189
0.0025581542868167162 0.5918576717376709 0.62672299146652222
0.27147957682609558 0.59104752540588379 0.6276584267616272
0.62782168388366699 0.57158941030502319 0.6163056492805481
0.92141681909561157 0.52107656002044678 0.5731053352355957
0.00010846023360500112 0.90653067827224731 0.57404059171676636
0.0025581500958651304 0.90650355815887451 0.573985755443573
0.27148076891899109 0.9065096378326416 0.55145680904388428
0.53082722425460815 0.90331292152404785 0.52231007814407349
0.9116547703742981 0.8911241888999939 0.52138257026672363
0.00010846023360500112 0.00010846023360500112 0.92138081789016724
0.0025546990800648928 0.00010846023360500112 0.92140114307403564
0.3327997624874115 0.00010846023360500112 0.92139500379562378
0.64714622497558594 0.00010846023360500112 0.92140114307403564
0.92141228914260864 0.00010846023360500112 0.92139971256256104
0.00010846023360500112 0.0025614683981984854 0.92140120267868042
0.0025575065519660711 0.0025603713002055883 0.92142051458358765
0.33267852663993835 0.0025603033136576414 0.92141562700271606
0.64711982011795044 0.0025603955145925283 0.92142051458358765
0.92142069339752197 0.0025603915564715862 0.92141711711883545
0.00010846023360500112 0.27238118648529053 0.92139500379562378
0.002560099121183157 0.27235844731330872 0.92141574621200562
0.31054490804672241 0.2401159256696701 0.92141169309616089
0.64218419790267944 0.22881904244422913 0.92141574621200562
0.92141467332839966 0.2288183867931366 0.92141544818878174
0.00010846023360500112 0.59189325571060181 0.92139983177185059
0.0025581500958651304 0.59184050559997559 0.92141962051391602
0.27148401737213135 0.58284807205200195 0.92135363817214966
0.60999614000320435 0.55597800016403198 0.92141628265380859
0.92137348651885986 0.49638581275939941 0.92133605480194092
0.00010846023360500112 0.90653073787689209 0.92053616046905518
0.0025581461377441883 0.90650302171707153 0.92055356502532959
0.27148067951202393 0.90648990869522095 0.92052251100540161
0.5303153395652771 0.9022788405418396 0.91990578174591064
0.91167104244232178 0.8901599645614624 0.91147798299789429
